X:1
T:Title
%%score 1 { ( 2 4 ) | 3 }
L:1/8
Q:3/4=76
M:3/4
K:F
V:1 treble nm="Chant\nVoice"
V:2 treble nm="Piano"
V:4 treble 
V:3 bass 
V:1
"^Allegro vivo" z6 | z6 | z6 | z6 | z6 | z6 | z6 | z6 | z2 z2!p! D2 | B4 A2 | G4 A2 | B6 | A4 G2 | %13
 F6 | C6- | C6- | C2 z2!mp! C2 | c4 B2 | A4 B2 | c6- | c4 B2 | A6 | F6- | F6- | F2 z2 D2 | d4 ^c2 | %26
 c4 A2 | G6- | G4 A2 | G4 F2 | D4 E2 | F6- | F4 F2 | G4 G2 | B4 G2 | F6- | F4 G2 | A4 G2 | F4 E2 | %39
 A6- | A2 z2 A2 | d4 c2 | A4 c2 | B6- | B2 z2 A2 | G4 F2 | E4 D2 | A6- | A2 z2 G2 | F4 E2 | %50
 A4 ^C2 | D6- | D6 |] %53
V:2
 z2 z2 z!p! ([D^F] | [GB]) z z ([D^F] [GB]) z | z ([D^F] [GB]2) z2 |!mp! [A^ca]4 [Acg]2- | %4
!>(! [Acg]2 [A^cf]2 [Ace]2!>)! |!pp!!<(! (([DFd]6 | [C^Fc]6)) | ((([DFc]6 |!mp! [DG=B]6))) | %9
!p! ([DBd]4 [CAc]2 | [B,GB]4 [CAc]2 | [DBd]6- | [DBd]4) [DBd]2 | [CAc]6 | (([A,FA]6 | [CFAc]6-)) | %16
 [CFAc]4 z2 |!p! ([EBce]6 | [CAc]4 [B,GB]2 | [CAc]6-) | [CAc]4 ([B,GB]2 | [A,FA]6-) | [A,FA]6 | %23
!pp! [A,FA]6- | [A,FA]6 |[K:bass]!pp! (D,2 A,2[K:treble] A2 | d2 f2 d2) | %27
[K:bass] (E,2 G,2[K:treble] G2 | ^c2 e2 c2) |[K:bass] (D,2 A,2[K:treble] A2 | d2 f2 d2) | %31
[K:bass] (D,2 A,2[K:treble] A2 | d2 f2 d2) |[K:bass] (E,2 G,2[K:treble] G2 | B2 e2 B2) | %35
[K:bass] (D,2 A,2[K:treble] A2 | d2 f2 d2) |[K:bass]!p! (E,2 A,2[K:treble] A2 | ^c2 e2 c2) | %39
[K:bass] (E,2 A,2[K:treble] A2 | ^c2 e2 c2) |[K:bass]!mp! (D,2 A,2[K:treble] A2 | c2 d2 c2) | %43
[K:bass] (D,2 G,2[K:treble] G2 | d2 g2 d2) |[K:bass] (D,2 A,2[K:treble] A2 | d2 f2 d2) | %47
[K:bass] (D,2 A,2[K:treble] A2 | d2 f2 d2) |[K:bass] (D,2 G,2[K:treble] G2 | A2 ^c2 A2) | %51
[K:bass]!pp! (D,2 A,2[K:treble] A2 | d2 f2 d2) |] %53
V:3
 z2 z2 z (B, | D) z z (B, D) z | z (B, D2) z2 |[K:treble] [A,^CG]4 [A,CG]2- | %4
 [A,CG]2 [A,^CF]2 [A,CE]2 |[K:bass]!pp!!ped!!<(! [D,F,D]2 A,2!ped-up!!ped! D,2 | %6
!ped! A,2 D,2!ped-up!!ped! D,,2!<)! |!ped! G,2 D,2!ped-up!!ped! D,,2 | %8
!ped! G,2 D,2!ped-up!!ped! G,,2!ped-up! |!ped! (G,,2 D,2 G,2 | B,2 D2!ped-up! D,2 | %11
!ped! G,,2 D,2 G,2!ped-up! | B,2 D2 D,2) |!ped! (F,,2 C,2 F,2 | A,2 C2 C,2) | (F,,2 C,2 F,2 | %16
 A,2 C2 C,2)!ped-up! |!ped! (G,,2 C,2 G,2 | B,2 C2 C,2)!ped-up! |!ped! (F,,2 C,2 F,2 | %20
 A,2 C2 C,2)!ped-up! |!ped! (D,,2 A,,2 D,2 | F,2 A,2 A,,2) | (D,,2 A,,2 D,2 | %24
 F,2 A,2 A,,2)!ped-up! |!ped! (F,,2 A,,2 F,2!ped-up! | A,2 D2 F,2) |!ped! (E,,2 A,,2 E,2!ped-up! | %28
 A,2 ^C2 E,2) |!ped! (F,,2 A,,2 F,2!ped-up! | A,2 D2 F,2) |!ped! (F,,2 A,,2 F,2!ped-up! | %32
 A,2 D2 F,2) |!ped! (E,,2 A,,2 E,2!ped-up! | G,2 ^C2 E,2) |!ped! (F,,2 A,,2 F,2!ped-up! | %36
 A,2 D2 F,2) |!ped! (E,,2 A,,2 E,2!ped-up! | A,2 ^C2 E,2) |!ped! (E,,2 A,,2 E,2!ped-up! | %40
 A,2 ^C2 E,2) |!ped! (^F,,2 A,,2 ^F,2!ped-up! | A,2 D2 ^F,2) |!ped! (G,,2 B,,2 G,2!ped-up! | %44
 B,2 D2 G,2) |!ped! (F,,2 A,,2 F,2!ped-up! | A,2 D2 F,2) |!ped! (F,,2 A,,2 F,2!ped-up! | %48
 A,2 D2 F,2) |!ped! (E,,2 G,,2 E,2!ped-up! | A,2 ^C2 E,2) |!ped! (D,,2 A,,2 D,2!ped-up! | %52
 F,2 A,2 D,2) |] %53
V:4
 x6 | x6 | x6 | x6 | x6 | x6 | x6 | x6 | x6 | x6 | x6 | x6 | x6 | x6 | x6 | x6 | x6 | x6 | x6 | %19
 x6 | x6 | x6 | x6 | x6 | x6 |[K:bass] x4[K:treble] x2 | F6 |[K:bass] x4[K:treble] x2 | E6 | %29
[K:bass] x4[K:treble] x2 | D6 |[K:bass] x4[K:treble] x2 | D6 |[K:bass] x4[K:treble] x2 | E6 | %35
[K:bass] x4[K:treble] x2 | F6 |[K:bass] x4[K:treble] x2 | E6 |[K:bass] x4[K:treble] x2 | E6 | %41
[K:bass] x4[K:treble] x2 | D6 |[K:bass] x4[K:treble] x2 | D6 |[K:bass] x4[K:treble] x2 | D6 | %47
[K:bass] x4[K:treble] x2 | D6 |[K:bass] x4[K:treble] x2 | ^C6 |[K:bass] x4[K:treble] x2 | D6 |] %53

